X:1
T:Title
%%score ( 1 2 ) ( 3 4 )
L:1/8
Q:1/4=90
M:4/4
K:G
V:1 treble nm="Midi_20"
V:2 treble 
V:3 bass nm="Midi_20"
V:4 bass 
V:1
"^Angels' story (76. 76. D)""^Arthur Henry Mann\n(1850-1929)""^I love to hear the story""^Emily Huntington Miller\n(1833-1913)" B2 | %1
 B3 B A2 G2 | G4 F2 D2 | c3 c B2 A2 | B6 || B2 | d3 d c2 B2 | B4 c2 B2 | A3 G F2 G2 | A6 || ^A2 | %11
 B3 B A2 G2 | G4 F2 D2 | c3 c B2 A2 | B6 || B2 | e3 d c2 B2 | d4 c2 E2 | G3 F E2 F2 | G6 |] %20
V:2
 D2 | D3 D C2 B,D | D4 D2 D2 | D2 F2 G2 D2 | D6 || G2 | ^G3 G A2 E2 | E4 E2 E2 | E3 ^C C2 C2 | %9
 =C6 || C2 | B,2 D2 C2 B,D | D4 D2 D2 | D2 F2 G2 D2 | D6 || G2 | ^G3 G A2 E2 | E4 E2 C2 | %18
 D3 C C2 C2 | B,6 |] %20
V:3
 G,2 | D,2 E,2 F,2 G,2 | B,4 A,2 F,2 | F,2 A,2 G,2 C2 | B,6 || B,2 | B,3 B, E2 B,2 | D4 C2 D2 | %8
 ^C3 B, A,2 G,2 | (G,4 F,2) || %10
"^1. I love to hear the story\nWhich angel voices tell,\nHow once the King of Glory\nCame down on earth to dwell.\nI am both weak and sinful,\nBut this I surely know,\nThe Lord came down to save me,\nBecause He loved me so.\n\n2. I'm glad my blessed Saviour\nWas once a child like me,\nTo show how pure and holy\nHis little ones might be;\nAnd if I try to follow\nHis footsteps here below,\nHe never will forsake me\nBecause He loves me so." F,2 | %11
 G,2 D,E, F,2 G,2 | B,4 A,2 F,2 | F,2 A,2 G,2 C2 | B,6 || %15
"^3. To sing His love and mercy\nMy sweetest songs I'll raise,\nAnd, though I cannot see Him,\nI know He hears my praise;\nFor He has kindly promised\nThat even I may go\nTo sing among His angels,\nBecause He loves me so." B,2 | %16
 B,3 B, E2 D2 | B,4 C2 A,2 | B,3 A, G,2 A,2 | G,6 |] %20
V:4
 G,2 | G,,2 G,,2 G,,2 G,,B,, | D,4 D,2 D,2 | D,3 D, E,2 F,2 | G,6 || G,2 | E,3 E, F,2 ^G,2 | %7
 ^G,4 A,2 A,2 | A,3 A,, A,,2 A,,2 | D,6 || D,2 | G,,2 G,,2 G,,2 G,,B,, | D,4 D,2 D,2 | %13
 D,3 D, E,2 F,2 | G,6 || G,2 | E,3 E, F,2 ^G,2 | ^G,4 A,2 A,,2 | D,3 D, D,2 D,2 | G,,6 |] %20

